X:402
T:Lady in the Dark
C:John Playford [A], Colin Hume [B]
M:6/8
L:1/8
S:Colin Hume's website,  colinhume.com  - chords can also be printed below the stave.
Q:3/8=112
K:Gm
P:A
|:G | "Gm"G2 A Bcd | "Gm"G3- G2 A | "Bb"B2 c d=ef | "Bb"B3- B2 d/=e/ |\
"Gm"f d2 B2 d | "F"c A2 F2 F | "Gm"G2A "D7"Bcd | "Gm"G3- G2 :|
P:B
|:B | "F"A2A cBA | "Bb"B3-B2d | "F"c2c_edc | "Bb"d3- d2 _e/f/ |\
"Eb"g_e2 "Bb"fd2 | "F"_ec2 "Gm"dB2 | "Cm"c2B "F"AGA | "Bb"B3- B2 :|
